src/assets/icons/logo-mac.svg

<?xml version="1.0" encoding="UTF-8" standalone="no"?>
<svg
   width="72.343498"
   height="72.343498"
   viewBox="0 0 72.343498 72.343498"
   fill="none"
   version="1.1"
   id="svg36"
   sodipodi:docname="logo-mac.svg"
   xmlns:inkscape="http://www.inkscape.org/namespaces/inkscape"
   xmlns:sodipodi="http://sodipodi.sourceforge.net/DTD/sodipodi-0.dtd"
   xmlns="http://www.w3.org/2000/svg"
   xmlns:svg="http://www.w3.org/2000/svg">
  <defs
     id="defs36" />
  <sodipodi:namedview
     id="namedview36"
     pagecolor="#ffffff"
     bordercolor="#000000"
     borderopacity="0.25"
     inkscape:showpageshadow="2"
     inkscape:pageopacity="0.0"
     inkscape:pagecheckerboard="0"
     inkscape:deskcolor="#d1d1d1">
    <inkscape:page
       x="0"
       y="0"
       width="72.343498"
       height="72.343498"
       id="page2"
       margin="0"
       bleed="0" />
  </sodipodi:namedview>
  <path
     d="M 0,36.1718 C 0,16.1964 16.1964,0 36.1718,0 56.1471,0 72.3435,16.1964 72.3435,36.1718 72.3435,56.1471 56.1471,72.3435 36.1718,72.3435 16.1964,72.3435 0,56.1497 0,36.1718 Z"
     fill="#000000"
     id="path35" />
  <path
     d="m 30.8384,45.4202 5.4381,-8.7486 4.0432,-6.5424 h 0.0366 c 0.3664,1.9837 0.9186,4.6294 1.3216,6.5791 l 1.7638,8.7119 H 30.8358 Z M 59.2011,42.497 H 58.963 l -0.0341,0.0314 c -2.1511,1.9811 -4.5299,2.986 -7.0762,2.986 -5.0168,0 -8.657,-3.9229 -8.657,-9.3269 0,-5.404 3.6298,-9.2719 8.6282,-9.2719 2.4913,0 4.844,1.0049 6.9899,2.9859 l 0.034,0.0314 h 0.2382 l 0.1596,-1.3137 -0.0471,-0.0419 c -2.2035,-1.9496 -4.7053,-2.9388 -7.4322,-2.9388 -4.7236,0 -8.3795,2.9964 -9.5415,7.4557 l -1.0651,-5.0219 h -0.8819 l -5.1423,8.0995 V 18.905 H 33.4737 L 25.785,33.8505 18.0964,18.905 h -1.633 v 22.3333 h 1.243 V 20.7762 c 0.793,1.4812 1.6173,3.0723 2.6432,5.0926 l 5.2104,10.1486 0.034,0.0654 h 0.3899 l 5.2418,-10.2114 2.6431,-5.0822 v 17.3872 l -10.0858,15.8824 0.0367,0.1099 h 1.544 l 4.6687,-7.4976 h 13.671 l 1.5074,7.4976 h 1.3975 l 0.0732,-0.0733 -2.227,-10.5123 c 1.7743,2.0072 4.3337,3.2084 7.3197,3.2084 2.7687,0 5.3778,-1.0259 7.5447,-2.9651 l 0.0471,-0.0418 -0.1596,-1.285 z"
     fill="#ffffff"
     id="path36" />
</svg>

<svg xmlns="http://www.w3.org/2000/svg" width="163" height="73" viewBox="0 0 163 73" fill="none"><path d="M80.3037 27.1673V20.197H81.4675L83.8412 24.9106H83.8597L86.2303 20.197H87.3756V27.1673H86.5259L86.5382 23.4543V21.3269H86.5197L85.7007 22.9248L83.9274 26.3976H83.7519L81.9878 22.9248L81.1719 21.3269H81.1504V23.4543V27.1673H80.3037Z" fill="#171717"></path><path d="M88.7725 24.4611V20.197H89.6284V24.3903C89.6284 25.865 90.2195 26.5454 91.5095 26.5454C92.7995 26.5454 93.3813 25.865 93.3813 24.381V20.197H94.2372V24.4303C94.2372 26.2899 93.2921 27.3643 91.5095 27.3643C89.7269 27.3643 88.7725 26.3514 88.7725 24.4611Z" fill="#171717"></path><path d="M95.1863 26.7147L95.3033 25.8281H95.3433C95.8667 26.2129 96.584 26.5947 97.3722 26.5947C98.2281 26.5947 98.7515 26.0528 98.7515 25.4032C98.7515 24.8213 98.4651 24.4088 97.2152 23.8885C95.7682 23.2881 95.2756 22.6662 95.2756 21.7518C95.2756 20.7789 96.0514 20 97.3814 20C98.1603 20 98.7699 20.2186 99.2718 20.5234L99.164 21.3916H99.124C98.5914 20.9975 97.991 20.7635 97.3537 20.7635C96.6148 20.7635 96.1899 21.1853 96.1899 21.7364C96.1899 22.2875 96.467 22.5738 97.6955 23.1342C99.281 23.8546 99.6658 24.4642 99.6658 25.3693C99.6658 26.4623 98.7792 27.3674 97.3537 27.3674C96.4455 27.3674 95.7097 27.0442 95.1863 26.7178" fill="#171717"></path><path d="M101.528 23.987V26.3791H104.798L104.699 27.1673H100.672V20.197H104.699L104.798 20.9852H101.528V23.1988H104.552V23.987H101.528Z" fill="#171717"></path><path d="M105.882 24.4611V20.197H106.738V24.3903C106.738 25.865 107.329 26.5454 108.619 26.5454C109.909 26.5454 110.491 25.865 110.491 24.381V20.197H111.347V24.4303C111.347 26.2899 110.401 27.3643 108.619 27.3643C106.836 27.3643 105.882 26.3514 105.882 24.4611Z" fill="#171717"></path><path d="M114.521 27.1673V20.197H116.479C119.096 20.197 120.475 21.4162 120.475 23.6421C120.475 25.8681 119 27.1673 116.479 27.1673H114.521ZM115.376 26.3791H116.349C118.517 26.3791 119.56 25.5017 119.56 23.6206C119.56 21.7395 118.566 20.9821 116.349 20.9821H115.376V26.3761V26.3791Z" fill="#171717"></path><path d="M122.359 23.987V26.3791H125.626L125.527 27.1673H121.503V20.197H125.527L125.626 20.9852H122.359V23.1988H125.38V23.987H122.359Z" fill="#171717"></path><path d="M131.251 20.197L134.216 27.1396L134.185 27.1704H133.271L132.532 25.3693H129.204L128.474 27.1704H127.557L127.529 27.1396L130.512 20.197H131.251ZM129.496 24.6366H132.233L131.347 22.4691C131.159 22.0166 131.002 21.6225 130.863 21.25H130.842C130.716 21.6256 130.559 22.0166 130.371 22.4691L129.493 24.6366H129.496Z" fill="#171717"></path><path d="M139.73 27.0103L139.662 27.1673H138.775L136.639 24.1255H135.518V27.1673H134.662V20.197H136.679C138.153 20.197 138.991 20.8559 138.991 22.1951C138.991 23.1126 138.48 23.7499 137.544 23.9777L139.73 27.0103ZM135.515 20.9636V23.3558H136.479C137.67 23.3558 138.104 22.971 138.104 22.1828C138.104 21.3269 137.633 20.9606 136.479 20.9606H135.515V20.9636Z" fill="#171717"></path><path d="M144.939 20.197V20.9852H142.556V27.1673H141.7V20.9852H139.308V20.197H144.939Z" fill="#171717"></path><path d="M146.38 23.987V26.3791H149.647L149.548 27.1673H145.524V20.197H149.548L149.647 20.9852H146.38V23.1988H149.401V23.987H146.38Z" fill="#171717"></path><path d="M81.1623 35.8063V38.1985H84.4288L84.3303 38.9867H80.3064V32.0133H84.3303L84.4288 32.8015H81.1623V35.0182H84.1825V35.8063H81.1623Z" fill="#171717"></path><path d="M86.9329 35.5108C86.9329 33.3556 88.4014 31.8193 90.458 31.8193C91.3755 31.8193 92.2222 32.1149 93.038 32.706L92.9303 33.6142H92.8902C92.1421 32.9831 91.3139 32.6475 90.4703 32.6475C88.9248 32.6475 87.8596 33.8082 87.8596 35.4923C87.8596 37.1764 88.9341 38.3586 90.4981 38.3586C91.3355 38.3586 92.1729 38.0138 92.921 37.3826H92.961L93.0688 38.2878C92.2714 38.8789 91.4032 39.1837 90.4703 39.1837C88.4014 39.1837 86.9359 37.669 86.9359 35.5108" fill="#171717"></path><path d="M95.1955 32.0133H94.3396V38.9836H95.1955V32.0133Z" fill="#171717"></path><path d="M97.5108 35.8062V38.1983H100.777L100.679 38.9865H96.6519V32.0162H100.679L100.777 32.8044H97.5108V35.0211H100.534V35.8092H97.5108V35.8062ZM97.9726 31.4035H97.323L97.2738 31.3235L98.2374 30.0828H99.1733L100.137 31.3235L100.088 31.4035H99.4381L98.7085 30.4676L97.9696 31.4035H97.9726Z" fill="#171717"></path><path d="M101.923 38.9866V32.0164H102.505L105.587 35.5415C106.049 36.0649 106.492 36.5852 106.954 37.1178H106.975C106.966 36.5852 106.966 36.0649 106.966 35.3445V32.0164H107.813V39.1159H107.566L104.158 35.2367C103.706 34.7257 103.253 34.2023 102.788 33.6727H102.77C102.779 34.2023 102.77 34.7257 102.77 35.4338V38.9866H101.923Z" fill="#171717"></path><path d="M108.855 35.5108C108.855 33.3556 110.324 31.8193 112.38 31.8193C113.298 31.8193 114.145 32.1149 114.96 32.706L114.853 33.6142H114.813C114.064 32.9831 113.236 32.6475 112.393 32.6475C110.847 32.6475 109.782 33.8082 109.782 35.4923C109.782 37.1764 110.856 38.3586 112.42 38.3586C113.258 38.3586 114.095 38.0138 114.843 37.3826H114.883L114.991 38.2878C114.194 38.8789 113.326 39.1837 112.393 39.1837C110.324 39.1837 108.858 37.669 108.858 35.5108" fill="#171717"></path><path d="M117.116 32.0133H116.26V38.9836H117.116V32.0133Z" fill="#171717"></path><path d="M121.282 32.0133L124.247 38.9559L124.216 38.9867H123.302L122.563 37.1856H119.235L118.505 38.9867H117.588L117.56 38.9559L120.543 32.0133H121.282ZM119.53 36.4559H122.267L121.381 34.2885C121.193 33.8359 121.036 33.4418 120.897 33.0693H120.876C120.749 33.4449 120.592 33.8359 120.405 34.2885L119.527 36.4559H119.53Z" fill="#171717"></path><path d="M126.466 38.9866V32.0164H128.424C131.041 32.0164 132.421 33.2386 132.421 35.4646C132.421 37.6905 130.946 38.9897 128.424 38.9897H126.466V38.9866ZM127.322 38.1985H128.295C130.463 38.1985 131.506 37.321 131.506 35.4399C131.506 33.5588 130.512 32.8014 128.295 32.8014H127.322V38.1985Z" fill="#171717"></path><path d="M134.305 35.8063V38.1985H137.575L137.476 38.9867H133.449V32.0133H137.476L137.575 32.8015H134.305V35.0182H137.325V35.8063H134.305Z" fill="#171717"></path><path d="M79.8911 47.327C79.8911 45.1719 81.3597 43.6356 83.4163 43.6356C84.3337 43.6356 85.1804 43.9312 85.9963 44.5223L85.8885 45.4305H85.8485C85.1004 44.7994 84.2722 44.4638 83.4286 44.4638C81.8831 44.4638 80.8178 45.6245 80.8178 47.3086C80.8178 48.9926 81.8923 50.1749 83.4563 50.1749C84.2937 50.1749 85.1311 49.8301 85.8793 49.1989H85.9193L86.0271 50.1041C85.2297 50.6952 84.3645 51 83.4286 51C81.3597 51 79.8942 49.4852 79.8942 47.327" fill="#171717"></path><path d="M89.8975 43.8326L92.8623 50.7752L92.8315 50.806H91.9172L91.1783 49.0049H87.8501L87.1205 50.806H86.203L86.1753 50.7752L89.1586 43.8326H89.8975ZM88.1457 48.2753H90.8827L89.996 46.1078C89.8082 45.6553 89.6512 45.2612 89.5127 44.8886H89.4911C89.3649 45.2643 89.2079 45.6553 89.0201 46.1078L88.1426 48.2753H88.1457Z" fill="#171717"></path><path d="M93.3047 50.8029V43.8326H94.4654L96.8391 48.5493H96.8576L99.2313 43.8326H100.373V50.8029H99.5268L99.5361 47.093V44.9656H99.5176L98.6986 46.5604L96.9284 50.0363H96.7498L94.9888 46.5604L94.1698 44.9656H94.1513V47.093V50.8029H93.3047Z" fill="#171717"></path><path d="M106.233 45.9108C106.233 47.1515 105.377 47.9582 103.899 47.9582H102.686V50.8029H101.83V43.8326H103.887C105.423 43.8326 106.23 44.5715 106.23 45.9108M103.705 47.1916C104.847 47.1916 105.358 46.779 105.358 45.9108C105.358 45.0426 104.835 44.6023 103.705 44.6023H102.692V47.1916H103.705Z" fill="#171717"></path><path d="M107.921 43.8326H107.065V50.8029H107.921V43.8326Z" fill="#171717"></path><path d="M109.38 50.8029V43.8326H109.962L113.043 47.3578C113.505 47.8812 113.948 48.4015 114.41 48.9341H114.432C114.423 48.4015 114.423 47.8812 114.423 47.1608V43.8326H115.269V50.9322H115.023L111.615 47.053C111.162 46.5419 110.71 46.0186 110.245 45.489H110.226C110.236 46.0186 110.226 46.5419 110.226 47.25V50.8029H109.38Z" fill="#171717"></path><path d="M119.431 43.8326L122.396 50.7752L122.365 50.806H121.451L120.712 49.0049H117.384L116.654 50.806H115.737L115.709 50.7752L118.693 43.8326H119.431ZM117.68 48.2753H120.417L119.53 46.1078C119.342 45.6553 119.185 45.2612 119.047 44.8886H119.025C118.899 45.2643 118.742 45.6553 118.554 46.1078L117.677 48.2753H117.68Z" fill="#171717"></path><path d="M124.201 47.327C124.201 45.1996 125.669 43.6356 127.883 43.6356C129.034 43.6356 129.952 44.0974 130.66 44.5993L130.543 45.5044H130.503C129.764 44.9041 128.917 44.4607 127.904 44.4607C126.18 44.4607 125.127 45.6737 125.127 47.3178C125.127 48.9618 126.162 50.1718 127.794 50.1718C128.474 50.1718 129.173 49.9932 129.801 49.6299V47.8874H127.677V47.1084H130.62V50.064C129.625 50.7629 128.668 51 127.754 51C125.568 51 124.201 49.436 124.201 47.327Z" fill="#171717"></path><path d="M137.119 50.6459L137.051 50.8029H136.165L134.028 47.7611H132.907V50.8029H132.052V43.8326H134.068C135.543 43.8326 136.38 44.4915 136.38 45.8307C136.38 46.7482 135.869 47.3855 134.933 47.6133L137.119 50.6459ZM132.907 44.6023V46.9945H133.871C135.063 46.9945 135.497 46.6097 135.497 45.8215C135.497 44.9656 135.026 44.5993 133.871 44.5993H132.907V44.6023Z" fill="#171717"></path><path d="M140.508 43.8326L143.473 50.7752L143.442 50.806H142.528L141.789 49.0049H138.461L137.731 50.806H136.814L136.786 50.7752L139.769 43.8326H140.508ZM138.753 48.2753H141.49L140.604 46.1078C140.416 45.6553 140.259 45.2612 140.12 44.8886H140.099C139.973 45.2643 139.816 45.6553 139.628 46.1078L138.75 48.2753H138.753Z" fill="#171717"></path><path d="M143.917 50.8029V43.8326H144.499L147.58 47.3578C148.042 47.8812 148.486 48.4015 148.947 48.9341H148.969C148.96 48.4015 148.96 47.8812 148.96 47.1608V43.8326H149.806V50.9322H149.56L146.152 47.053C145.699 46.5419 145.247 46.0186 144.782 45.489H144.763C144.773 46.0186 144.763 46.5419 144.763 47.25V50.8029H143.917Z" fill="#171717"></path><path d="M151.263 50.8029V43.8326H153.221C155.838 43.8326 157.217 45.0549 157.217 47.2808C157.217 49.5068 155.743 50.806 153.221 50.806H151.263V50.8029ZM152.122 50.0178H153.095C155.262 50.0178 156.306 49.1404 156.306 47.2593C156.306 45.3782 155.311 44.6208 153.095 44.6208H152.122V50.0178Z" fill="#171717"></path><path d="M159.101 47.6226V50.0178H162.371L162.272 50.8029H158.245V43.8326H162.272L162.371 44.6208H159.101V46.8375H162.125V47.6226H159.101Z" fill="#171717"></path><path d="M0 36.1718C0 16.1964 16.1964 0 36.1718 0C56.1471 0 72.3435 16.1964 72.3435 36.1718C72.3435 56.1471 56.1471 72.3435 36.1718 72.3435C16.1964 72.3435 0 56.1497 0 36.1718Z" fill="black"></path><path d="M30.8384 45.4202L36.2765 36.6716L40.3197 30.1292H40.3563C40.7227 32.1129 41.2749 34.7586 41.6779 36.7083L43.4417 45.4202H30.8358H30.8384ZM59.2011 42.497H58.963L58.9289 42.5284C56.7778 44.5095 54.399 45.5144 51.8527 45.5144C46.8359 45.5144 43.1957 41.5915 43.1957 36.1875C43.1957 30.7835 46.8255 26.9156 51.8239 26.9156C54.3152 26.9156 56.6679 27.9205 58.8138 29.9015L58.8478 29.9329H59.086L59.2456 28.6192L59.1985 28.5773C56.995 26.6277 54.4932 25.6385 51.7663 25.6385C47.0427 25.6385 43.3868 28.6349 42.2248 33.0942L41.1597 28.0723H40.2778L35.1355 36.1718V18.905H33.4737L25.785 33.8505L18.0964 18.905H16.4634V41.2383H17.7064V20.7762C18.4994 22.2574 19.3237 23.8485 20.3496 25.8688L25.56 36.0174L25.594 36.0828H25.9839L31.2257 25.8714L33.8688 20.7892V38.1764L23.783 54.0588L23.8197 54.1687H25.3637L30.0324 46.6711H43.7034L45.2108 54.1687H46.6083L46.6815 54.0954L44.4545 43.5831C46.2288 45.5903 48.7882 46.7915 51.7742 46.7915C54.5429 46.7915 57.152 45.7656 59.3189 43.8264L59.366 43.7846L59.2064 42.4996L59.2011 42.497Z" fill="white"></path></svg>
